docs/images/hero-img/hero-stats.svg

<svg width="152" height="132" viewBox="0 0 152 132" fill="none" xmlns="http://www.w3.org/2000/svg">
<g filter="url(#filter0_d)">
<circle cx="75.5" cy="109.5" r="7.5" fill="white"/>
<circle cx="75.5" cy="109.5" r="6.5" stroke="#5E80FE" stroke-width="2"/>
</g>
<g filter="url(#filter1_d)">
<mask id="path-3-inside-1" fill="white">
<path fill-rule="evenodd" clip-rule="evenodd" d="M122 23C122 21.3431 120.657 20 119 20H33C31.3431 20 30 21.3431 30 23V80.26C30 81.9168 31.3431 83.26 33 83.26H69.6692C70.6652 83.26 71.5963 83.7543 72.1543 84.5794L73.5149 86.5912C74.7046 88.3504 77.2953 88.3504 78.485 86.5912L79.8456 84.5794C80.4035 83.7543 81.3346 83.26 82.3306 83.26H119C120.657 83.26 122 81.9168 122 80.26V23Z"/>
</mask>
<path fill-rule="evenodd" clip-rule="evenodd" d="M122 23C122 21.3431 120.657 20 119 20H33C31.3431 20 30 21.3431 30 23V80.26C30 81.9168 31.3431 83.26 33 83.26H69.6692C70.6652 83.26 71.5963 83.7543 72.1543 84.5794L73.5149 86.5912C74.7046 88.3504 77.2953 88.3504 78.485 86.5912L79.8456 84.5794C80.4035 83.7543 81.3346 83.26 82.3306 83.26H119C120.657 83.26 122 81.9168 122 80.26V23Z" fill="white"/>
<path d="M79.8456 84.5794L79.0172 84.0192L79.8456 84.5794ZM73.5149 86.5912L74.3432 86.031L73.5149 86.5912ZM78.485 86.5912L79.3133 87.1514L78.485 86.5912ZM33 21H119V19H33V21ZM31 80.26V23H29V80.26H31ZM69.6692 82.26H33V84.26H69.6692V82.26ZM74.3432 86.031L72.9827 84.0191L71.3259 85.1396L72.6865 87.1514L74.3432 86.031ZM79.0172 84.0192L77.6566 86.031L79.3133 87.1514L80.6739 85.1396L79.0172 84.0192ZM119 82.26H82.3306V84.26H119V82.26ZM121 23V80.26H123V23H121ZM119 84.26C121.209 84.26 123 82.4691 123 80.26H121C121 81.3645 120.105 82.26 119 82.26V84.26ZM80.6739 85.1396C81.0459 84.5895 81.6666 84.26 82.3306 84.26V82.26C81.0026 82.26 79.7612 82.9191 79.0172 84.0192L80.6739 85.1396ZM72.6865 87.1514C74.2728 89.497 77.7271 89.497 79.3133 87.1514L77.6566 86.031C76.8635 87.2038 75.1364 87.2038 74.3432 86.031L72.6865 87.1514ZM69.6692 84.26C70.3332 84.26 70.954 84.5895 71.3259 85.1396L72.9827 84.0191C72.2387 82.9191 70.9973 82.26 69.6692 82.26V84.26ZM29 80.26C29 82.4691 30.7909 84.26 33 84.26V82.26C31.8954 82.26 31 81.3645 31 80.26H29ZM119 21C120.105 21 121 21.8954 121 23H123C123 20.7909 121.209 19 119 19V21ZM33 19C30.7909 19 29 20.7909 29 23H31C31 21.8954 31.8954 21 33 21V19Z" fill="#D8E0F7" mask="url(#path-3-inside-1)"/>
<path d="M59 53.25C59 43.7231 66.6683 36 76.1277 36C77.8711 36 79.5537 36.2624 81.1387 36.75" stroke="#5F82FF" stroke-width="4" stroke-linecap="round" stroke-linejoin="round"/>
<path fill-rule="evenodd" clip-rule="evenodd" d="M72.4416 56.9623C74.4773 59.0126 77.7778 59.0126 79.8135 56.9623C81.8493 54.912 90.2764 40.5 89.5317 39.75C88.787 39 74.4773 47.4874 72.4416 49.5377C70.4059 51.5879 70.4059 54.912 72.4416 56.9623ZM76.1275 54.75C76.9501 54.75 77.6169 54.0785 77.6169 53.25C77.6169 52.4216 76.9501 51.75 76.1275 51.75C75.305 51.75 74.6382 52.4216 74.6382 53.25C74.6382 54.0785 75.305 54.75 76.1275 54.75Z" fill="#5F82FF"/>
<ellipse cx="61.234" cy="62.25" rx="1.48936" ry="1.5" fill="#5F82FF"/>
<ellipse cx="67.1915" cy="68.25" rx="1.48936" ry="1.5" fill="#5F82FF"/>
<ellipse cx="76.1275" cy="70.5" rx="1.48936" ry="1.5" fill="#5F82FF"/>
<ellipse cx="85.0638" cy="68.25" rx="1.48936" ry="1.5" fill="#5F82FF"/>
<ellipse cx="90.2767" cy="62.25" rx="1.48936" ry="1.5" fill="#5F82FF"/>
<ellipse cx="92.5106" cy="53.25" rx="1.48936" ry="1.5" fill="#5F82FF"/>
</g>
<defs>
<filter id="filter0_d" x="53" y="87" width="45" height="45" filterUnits="userSpaceOnUse" color-interpolation-filters="sRGB">
<feFlood flood-opacity="0" result="BackgroundImageFix"/>
<feColorMatrix in="SourceAlpha" type="matrix" values="0 0 0 0 0 0 0 0 0 0 0 0 0 0 0 0 0 0 127 0" result="hardAlpha"/>
<feOffset/>
<feGaussianBlur stdDeviation="7.5"/>
<feColorMatrix type="matrix" values="0 0 0 0 0.323144 0 0 0 0 0.512664 0 0 0 0 1 0 0 0 0.25 0"/>
<feBlend mode="normal" in2="BackgroundImageFix" result="effect1_dropShadow"/>
<feBlend mode="normal" in="SourceGraphic" in2="effect1_dropShadow" result="shape"/>
</filter>
<filter id="filter1_d" x="0" y="0" width="152" height="127.911" filterUnits="userSpaceOnUse" color-interpolation-filters="sRGB">
<feFlood flood-opacity="0" result="BackgroundImageFix"/>
<feColorMatrix in="SourceAlpha" type="matrix" values="0 0 0 0 0 0 0 0 0 0 0 0 0 0 0 0 0 0 127 0" result="hardAlpha"/>
<feOffset dy="10"/>
<feGaussianBlur stdDeviation="15"/>
<feColorMatrix type="matrix" values="0 0 0 0 0.894415 0 0 0 0 0.918495 0 0 0 0 0.984716 0 0 0 1 0"/>
<feBlend mode="normal" in2="BackgroundImageFix" result="effect1_dropShadow"/>
<feBlend mode="normal" in="SourceGraphic" in2="effect1_dropShadow" result="shape"/>
</filter>
</defs>
</svg>

<svg width="152" height="132" fill="none" xmlns="http://www.w3.org/2000/svg"><g filter="url(#a)"><circle cx="75.5" cy="109.5" r="7.5" fill="#fff"/><circle cx="75.5" cy="109.5" r="6.5" stroke="#5E80FE" stroke-width="2"/></g><g filter="url(#b)"><mask id="c" fill="#fff"><path fill-rule="evenodd" clip-rule="evenodd" d="M122 23a3 3 0 0 0-3-3H33a3 3 0 0 0-3 3v57.26a3 3 0 0 0 3 3h36.67a3 3 0 0 1 2.484 1.32l1.36 2.011c1.19 1.76 3.781 1.76 4.971 0l1.36-2.012a3 3 0 0 1 2.486-1.319H119a3 3 0 0 0 3-3V23Z"/></mask><path fill-rule="evenodd" clip-rule="evenodd" d="M122 23a3 3 0 0 0-3-3H33a3 3 0 0 0-3 3v57.26a3 3 0 0 0 3 3h36.67a3 3 0 0 1 2.484 1.32l1.36 2.011c1.19 1.76 3.781 1.76 4.971 0l1.36-2.012a3 3 0 0 1 2.486-1.319H119a3 3 0 0 0 3-3V23Z" fill="#fff"/><path d="m79.846 84.58-.829-.56.829.56Zm-6.331 2.011.828-.56-.828.56Zm4.97 0 .828.56-.828-.56ZM33 21h86v-2H33v2Zm-2 59.26V23h-2v57.26h2Zm38.67 2H33v2h36.67v-2Zm4.673 3.771-1.36-2.012-1.657 1.12 1.36 2.012 1.657-1.12Zm4.674-2.012-1.36 2.012 1.656 1.12 1.36-2.011-1.656-1.12ZM119 82.26H82.33v2H119v-2ZM121 23v57.26h2V23h-2Zm-2 61.26a4 4 0 0 0 4-4h-2a2 2 0 0 1-2 2v2Zm-38.326.88a2 2 0 0 1 1.657-.88v-2a4 4 0 0 0-3.314 1.76l1.657 1.12Zm-7.988 2.011c1.587 2.346 5.041 2.346 6.627 0l-1.656-1.12a2 2 0 0 1-3.314 0l-1.657 1.12ZM69.67 84.26a2 2 0 0 1 1.657.88l1.657-1.12a4 4 0 0 0-3.314-1.76v2Zm-40.67-4a4 4 0 0 0 4 4v-2a2 2 0 0 1-2-2h-2ZM119 21a2 2 0 0 1 2 2h2a4 4 0 0 0-4-4v2Zm-86-2a4 4 0 0 0-4 4h2a2 2 0 0 1 2-2v-2Z" fill="#D8E0F7" mask="url(#c)"/><path d="M59 53.25C59 43.723 66.668 36 76.128 36c1.743 0 3.426.262 5.01.75" stroke="#5F82FF" stroke-width="4" stroke-linecap="round" stroke-linejoin="round"/><path fill-rule="evenodd" clip-rule="evenodd" d="M72.442 56.962a5.187 5.187 0 0 0 7.372 0c2.035-2.05 10.462-16.462 9.718-17.212-.745-.75-15.055 7.737-17.09 9.788a5.277 5.277 0 0 0 0 7.424Zm3.686-2.212c.822 0 1.489-.672 1.489-1.5s-.667-1.5-1.49-1.5c-.822 0-1.489.672-1.489 1.5s.667 1.5 1.49 1.5Z" fill="#5F82FF"/><ellipse cx="61.234" cy="62.25" rx="1.489" ry="1.5" fill="#5F82FF"/><ellipse cx="67.192" cy="68.25" rx="1.489" ry="1.5" fill="#5F82FF"/><ellipse cx="76.127" cy="70.5" rx="1.489" ry="1.5" fill="#5F82FF"/><ellipse cx="85.064" cy="68.25" rx="1.489" ry="1.5" fill="#5F82FF"/><ellipse cx="90.277" cy="62.25" rx="1.489" ry="1.5" fill="#5F82FF"/><ellipse cx="92.511" cy="53.25" rx="1.489" ry="1.5" fill="#5F82FF"/></g><defs><filter id="a" x="53" y="87" width="45" height="45" filterUnits="userSpaceOnUse" color-interpolation-filters="sRGB"><feFlood flood-opacity="0" result="BackgroundImageFix"/><feColorMatrix in="SourceAlpha" values="0 0 0 0 0 0 0 0 0 0 0 0 0 0 0 0 0 0 127 0" result="hardAlpha"/><feOffset/><feGaussianBlur stdDeviation="7.5"/><feColorMatrix values="0 0 0 0 0.323144 0 0 0 0 0.512664 0 0 0 0 1 0 0 0 0.25 0"/><feBlend in2="BackgroundImageFix" result="effect1_dropShadow"/><feBlend in="SourceGraphic" in2="effect1_dropShadow" result="shape"/></filter><filter id="b" x="0" y="0" width="152" height="127.911" filterUnits="userSpaceOnUse" color-interpolation-filters="sRGB"><feFlood flood-opacity="0" result="BackgroundImageFix"/><feColorMatrix in="SourceAlpha" values="0 0 0 0 0 0 0 0 0 0 0 0 0 0 0 0 0 0 127 0" result="hardAlpha"/><feOffset dy="10"/><feGaussianBlur stdDeviation="15"/><feColorMatrix values="0 0 0 0 0.894415 0 0 0 0 0.918495 0 0 0 0 0.984716 0 0 0 1 0"/><feBlend in2="BackgroundImageFix" result="effect1_dropShadow"/><feBlend in="SourceGraphic" in2="effect1_dropShadow" result="shape"/></filter></defs></svg>
